icon-themes/sifr_svg/cmd/ar/sc_undo.svg

<svg viewBox="0 0 16 16" xmlns="http://www.w3.org/2000/svg"><path d="m10 3c.30945 0 .55232.09029.75.28125l3.25 2.84375v1.7050781c-1.083465.9581337-2.166532 2.0680428-3.25 2.8886719-.19768.19095-.44055.28125-.75.28125h-.5859375-.4140625v-1c0-.2568898.12983-.52846.3125-.71875l1.509766-1.28125h-4.822266a2 2 0 0 0 -2 2 2 2 0 0 0 2 2h1v2h-1a4 4 0 0 1 -4-4 4 4 0 0 1 4-4h4.822266l-1.509766-1.28125c-.18267-.19029-.3125-.46186-.3125-.71875v-1h.4140625z" fill="#555753"/></svg>

<svg xmlns="http://www.w3.org/2000/svg" viewBox="0 0 16 16">
  <path
     style="fill:#555753"
     d="m 10,3 c 0.30945,0 0.55232,0.09029 0.75,0.28125 L 14,6.125 V 7.8300781 C 12.916535,8.7882118 11.833468,9.8981209 10.75,10.71875 10.55232,10.9097 10.30945,11 10,11 H 9.4140625 9 V 10 C 9,9.7431102 9.12983,9.47154 9.3125,9.28125 L 10.822266,8 H 6 a 2,2 0 0 0 -2,2 2,2 0 0 0 2,2 h 1 v 2 H 6 A 4,4 0 0 1 2,10 4,4 0 0 1 6,6 h 4.822266 L 9.3125,4.71875 C 9.12983,4.52846 9,4.25689 9,4 V 3 h 0.4140625 z"
     />
</svg>
